X:1
T:Miss Patterson’s Slippers
M:C
L:1/8
R:Reel
B:Stephen Grier music manuscript  collection (Book 2, c. 1883, No. 39, p. 8)
B:  http://grier.itma.ie/book-two#?c=0&m=0&s=0&cv=7&z=-479.8556%2C42.7452%2C4235.3267%2C1481.5886
N:Stephen Grier (c. 1824-1894) was a piper and fiddler from
N:Newpark, Bohey, Gortletteragh, south Co. Leitrim.
Z:AK/Fiddler’s Companion
K:Emin
B,EG,E B,EGE|FE/D/ A,DA,D FD|B,EG,E B,EGE|FDB,D EE/E/ E2|
B,EG,E B,EGE|FE/D/ A,D A,DFD|DEGE FAdB|AFdF EE/E/ E2||
ebgb fbeg|fada fdad|ebgb fbec|dBAF EE/E/E2|
ebgb ebeg|fada fdaA|GABc dcdB|AFdF EE/E/ E2||

